!!!COM: Palestrina, Giovanni Perluigi da
!!!OPR: Fratres Ego Enim Accepi
!!!OTL: Sanctus
**kern	**kern	**kern	**kern	**kern	**kern	**kern	**kern
*Ibass	*Itenor	*Icalto	*Icant	*Ibass	*Itenor	*Icalto	*Icant
!Bassus	!Tenor	!Altus	!Cantus	!Bassus	!Tenor	!Altus	!Cantus
*clefF4	*clefGv2	*clefG2	*clefG2	*clefF4	*clefGv2	*clefG2	*clefG2
*k[b-]	*k[b-]	*k[b-]	*k[b-]	*k[b-]	*k[b-]	*k[b-]	*k[b-]
*G:dor	*G:dor	*G:dor	*G:dor	*G:dor	*G:dor	*G:dor	*G:dor
*M4/2	*M4/2	*M4/2	*M4/2	*M4/2	*M4/2	*M4/2	*M4/2
=1	=1	=1	=1	=1	=1	=1	=1
0r	0r	0r	0r	0G	1r	0r	0r
.	.	.	.	.	[1d	.	.
=2	=2	=2	=2	=2	=2	=2	=2
0r	0r	0r	0r	1D	1d]	0r	0r
.	.	.	.	2r	1G	.	.
.	.	.	.	[2G	.	.	.
=3	=3	=3	=3	=3	=3	=3	=3
0r	0r	0r	0r	2G]	2r	0r	0r
.	.	.	.	2F	1d	.	.
.	.	.	.	2B-	.	.	.
.	.	.	.	4A	2c	.	.
.	.	.	.	4G	.	.	.
=4	=4	=4	=4	=4	=4	=4	=4
0r	0r	0r	0r	2F	2f	0r	0r
.	.	.	.	2G	4e	.	.
.	.	.	.	.	4d	.	.
.	.	.	.	2A	2c	.	.
.	.	.	.	2B-	2d	.	.
=5	=5	=5	=5	=5	=5	=5	=5
0r	0r	0r	0r	1c	2e	0g	1r
.	.	.	.	.	1c	.	.
.	.	.	.	[1G	.	.	[1dd
.	.	.	.	.	4B-	.	.
.	.	.	.	.	4A	.	.
=6	=6	=6	=6	=6	=6	=6	=6
0r	0r	0r	0r	2G]	4B-	1d	1dd]
.	.	.	.	.	4c	.	.
.	.	.	.	2F	1d	.	.
.	.	.	.	1E	.	2r	1g
.	.	.	.	.	2c	[2g	.
=7	=7	=7	=7	=7	=7	=7	=7
0r	0r	0r	0r	1D	2B-	2g]	2r
.	.	.	.	.	2A	2f	1dd
.	.	.	.	2r	2G	2b-	.
.	.	.	.	2F	2A	4a	2cc
.	.	.	.	.	.	4g	.
=8	=8	=8	=8	=8	=8	=8	=8
0r	0r	0r	0r	2D	1B-	2f	2ff
.	.	.	.	2E	.	2g	4ee
.	.	.	.	.	.	.	4dd
.	.	.	.	2F	2A	2a	2cc
.	.	.	.	2D	2F	2b-	2dd
=9	=9	=9	=9	=9	=9	=9	=9
0r	0r	0g	1r	1C	2G	2cc	2.ee
.	.	.	.	.	1c	2c	.
.	.	.	.	.	.	.	4ff
.	.	.	[1dd	[1G	.	[1d	1gg
.	.	.	.	.	4B-	.	.
.	.	.	.	.	4A	.	.
=10	=10	=10	=10	=10	=10	=10	=10
0G	1r	1d	1dd]	1G]	2.B-	1d]	2gg
.	.	.	.	.	.	.	2.dd
.	.	.	.	.	4c	.	.
.	[1d	2r	1g	2.B-	1d	1r	.
.	.	.	.	.	.	.	4cc
.	.	[2g	.	.	.	.	2b-
.	.	.	.	4c	.	.	.
=11	=11	=11	=11	=11	=11	=11	=11
1D	1d]	2g]	2r	1d	0r	0r	1a
.	.	2f	1dd	.	.	.	.
2r	1G	[1b-	.	1r	.	.	1r
[2G	.	.	2b-	.	.	.	.
=12	=12	=12	=12	=12	=12	=12	=12
2G]	2r	2b-]	2dd	0r	0r	0r	0r
2F	1d	4a	2.ff	.	.	.	.
.	.	4g	.	.	.	.	.
2B-	.	2f	.	.	.	.	.
.	.	.	4dd	.	.	.	.
4A	2c	[2a	2ee	.	.	.	.
4G	.	.	.	.	.	.	.
=13	=13	=13	=13	=13	=13	=13	=13
2F	2f	2a]	2a	0r	0r	0r	0r
2G	4e	4g	2b-	.	.	.	.
.	4d	4f	.	.	.	.	.
2A	2c	2e	2a	.	.	.	.
2B-	2d	2d	[2g	.	.	.	.
=14	=14	=14	=14	=14	=14	=14	=14
2c	2e	2c	2g]	0r	0r	0r	0r
2A	2c	1cc	2f#	.	.	.	.
1G	1d	.	[1g	.	.	.	.
.	.	2b	.	.	.	.	.
=15	=15	=15	=15	=15	=15	=15	=15
1C	1e	1cc	1g]	2r	2r	2r	2r
.	.	.	.	2.c	2.e	2.g	2.cc
1r	1r	1r	1r	.	.	.	.
.	.	.	.	4c	4e	4g	4cc
.	.	.	.	2c	2e	2a	2cc
=16	=16	=16	=16	=16	=16	=16	=16
0r	0r	0r	0r	1B-	0f	1b-	1dd
.	.	.	.	[1F	.	2a	1cc
.	.	.	.	.	.	4f	.
.	.	.	.	.	.	4g	.
=17	=17	=17	=17	=17	=17	=17	=17
0r	0r	0r	0r	1F]	0f	4a	2r
.	.	.	.	.	.	4b-	.
.	.	.	.	.	.	2.cc	4f
.	.	.	.	.	.	.	4g
.	.	.	.	2r	.	.	4a
.	.	.	.	.	.	4b-	4b-
.	.	.	.	4F	.	4a	2cc
.	.	.	.	4G	.	4g	.
=18	=18	=18	=18	=18	=18	=18	=18
0r	0r	0r	0r	4A	2r	2f	2a
.	.	.	.	4B-	.	.	.
.	.	.	.	2c	4c	4e	2g
.	.	.	.	.	4d	4d	.
.	.	.	.	2A	4e	2c	2a
.	.	.	.	.	4f	.	.
.	.	.	.	2G	2g	2d	2b-
=19	=19	=19	=19	=19	=19	=19	=19
0r	0r	0r	0r	2.A	2e	2c	[0cc
.	.	.	.	.	2a	1f	.
.	.	.	.	4B-	.	.	.
.	.	.	.	1c	1g	.	.
.	.	.	.	.	.	2e	.
=20	=20	=20	=20	=20	=20	=20	=20
2r	2r	2r	2r	1F	1f	1a	1cc]
2.F	2.f	2.a	2.cc	.	.	.	.
.	.	.	.	1r	1r	1r	1r
4F	4f	4a	4cc	.	.	.	.
2F	2f	2a	2cc	.	.	.	.
=21	=21	=21	=21	=21	=21	=21	=21
1E-	1g	1b-	1ee-	0r	0r	0r	0r
1BB-	[1f	1b-	2dd	.	.	.	.
.	.	.	4b-	.	.	.	.
.	.	.	4cc	.	.	.	.
=22	=22	=22	=22	=22	=22	=22	=22
2r	1f]	4B-	4dd	0r	0r	0r	0r
.	.	4c	4ee	.	.	.	.
4BB-	.	4d	2ff	.	.	.	.
4C	.	4e	.	.	.	.	.
4D	2r	4f	2dd	.	.	.	.
4E	.	4g	.	.	.	.	.
2F	4F	[2a	2cc	.	.	.	.
.	4G	.	.	.	.	.	.
=23	=23	=23	=23	=23	=23	=23	=23
2D	4A	4a]	2dd	0r	0r	0r	0r
.	4B-	4d	.	.	.	.	.
2C	2c	2g	2ee-	.	.	.	.
2.D	2A	[1f	1dd	.	.	.	.
.	[2B-	.	.	.	.	.	.
4E	.	.	.	.	.	.	.
=24	=24	=24	=24	=24	=24	=24	=24
1F	4B-]	1f]	1cc	1r	1r	1r	1r
.	8A	.	.	.	.	.	.
.	8G	.	.	.	.	.	.
.	2A	.	.	.	.	.	.
[1BB-	[1B-	[1f	[1dd	2r	2r	2r	2r
.	.	.	.	[2B-	[2d	[2f	[2b-
=25	=25	=25	=25	=25	=25	=25	=25
1BB-]	1B-]	1f]	1dd]	4B-]	4d]	4f]	4b-]
.	.	.	.	4B-	4d	4f	4b-
.	.	.	.	2B-	2d	2f	2b-
1r	1r	1r	1r	1A	1c	1f	1cc
=26	=26	=26	=26	=26	=26	=26	=26
2r	2r	2r	2r	1B-	1f	1d	2dd
2.B-	2.d	2.f	2.b-	.	.	.	2b-
.	.	.	.	1BB-	2d	2.f	2.dd
4B-	4d	4f	4b-	.	.	.	.
2B-	2d	2f	2b-	.	[2f	.	.
.	.	.	.	.	.	4g	4ee
=27	=27	=27	=27	=27	=27	=27	=27
1A	1c	1f	1cc	1F	4f]	2a	1ff
.	.	.	.	.	8e	.	.
.	.	.	.	.	8d	.	.
.	.	.	.	.	2c	2a	.
1B-	1f	1d	1dd	2BB-	2B-	2f	2ff
.	.	.	.	[2B-	[2d	[2f	[2b-
=28	=28	=28	=28	=28	=28	=28	=28
1BB-	2d	2.f	1dd	4B-]	4d]	4f]	4b-]
.	.	.	.	4B-	4d	4f	4b-
.	2.f	.	.	2B-	2d	2f	2b-
.	.	4g	.	.	.	.	.
1F	.	2a	1ff	1A	1c	1f	1cc
.	8e	.	.	.	.	.	.
.	8d	.	.	.	.	.	.
.	2c	2a	.	.	.	.	.
=29	=29	=29	=29	=29	=29	=29	=29
1BB-	1B-	1f	1ff	1B-	0f	4d	1dd
.	.	.	.	.	.	4e	.
.	.	.	.	.	.	4f	.
.	.	.	.	.	.	4g	.
2r	2r	2r	2r	[1F	.	4a	2cc
.	.	.	.	.	.	4b-	.
[2F	2c	[2a	[2ff	.	.	[2cc	4f
.	.	.	.	.	.	.	4g
=30	=30	=30	=30	=30	=30	=30	=30
4F]	2c	4a]	4ff]	1F]	1.c	2cc]	4a
4F	.	4a	4ff	.	.	.	4b-
2F	2A	2a	2ff	.	.	2f	4cc
.	.	.	.	.	.	.	4dd
1C	1c	1g	1gg	1c	.	2g	4ee
.	.	.	.	.	.	.	4ff
.	.	.	.	.	2e	[2cc	2gg
=31	=31	=31	=31	=31	=31	=31	=31
1F	1c	2a	1ff	1A	1f	4cc]	1cc
.	.	.	.	.	.	4b-	.
.	.	2cc	.	.	.	2a	.
1G	2r	4b-	[1dd	2.B-	2r	4g	2r
.	.	4a	.	.	.	4a	.
.	2G	[2g	.	.	[2d	2b-	[2dd
.	.	.	.	4c	.	.	.
=32	=32	=32	=32	=32	=32	=32	=32
0D	0A	2g]	1dd]	0d	4d]	0a	2dd]
.	.	.	.	.	4e	.	.
.	.	4f#	.	.	4f#	.	2a
.	.	4e	.	.	4g	.	.
.	.	1f#	1a	.	2a	.	1dd
.	.	.	.	.	2d	.	.
=33	=33	=33	=33	=33	=33	=33	=33
0G	1G	0g	0b	1r	1d	2r	2r
.	.	.	.	.	.	2d	2dd
.	1r	.	.	1G	1r	2g	2dd
.	.	.	.	.	.	2g	2dd
=34	=34	=34	=34	=34	=34	=34	=34
0r	0r	0r	0r	2G	2r	1b-	1.gg
.	.	.	.	2G	2d	.	.
.	.	.	.	[1d	2d	1a	.
.	.	.	.	.	2d	.	4ff
.	.	.	.	.	.	.	4ee
=35	=35	=35	=35	=35	=35	=35	=35
0r	0r	0r	0r	2d]	1.a	2d	2ff
.	.	.	.	2c	.	2e	2.ee
.	.	.	.	1B-	.	2f	.
.	.	.	.	.	.	.	4dd
.	.	.	.	.	2g	2g	[2dd
=36	=36	=36	=36	=36	=36	=36	=36
0r	0r	0r	1r	2.A	2f	1.a	2dd]
.	.	.	.	.	2e	.	2cc
.	.	.	.	4G	.	.	.
.	.	.	2r	2F	2.d	.	4dd
.	.	.	.	.	.	.	4cc
.	.	.	2dd	[2G	.	2g	4b-
.	.	.	.	.	4c	.	4a
=37	=37	=37	=37	=37	=37	=37	=37
0r	0r	0r	2dd	2G]	4B-	2b-	2g
.	.	.	.	.	4G	.	.
.	.	.	2dd	2F	1d	2a	2a
.	.	.	[1gg	1E-	.	1g	2b-
.	.	.	.	.	2c	.	4a
.	.	.	.	.	.	.	4g
=38	=38	=38	=38	=38	=38	=38	=38
2r	2r	2r	2gg]	0D	0d	2r	2b-
2D	2d	2a	4ff	.	.	2d	2a
.	.	.	4ee	.	.	.	.
2D	2d	2a	2.ff	.	.	2a	1dd
2D	2d	2f	.	.	.	2a	.
.	.	.	4ee	.	.	.	.
=39	=39	=39	=39	=39	=39	=39	=39
1G	2B-	1g	4dd	0r	0r	0r	0r
.	.	.	4cc	.	.	.	.
.	4G	.	1b-	.	.	.	.
.	4A	.	.	.	.	.	.
2G	4B-	1d	.	.	.	.	.
.	4c	.	.	.	.	.	.
2F	[2d	.	2a	.	.	.	.
=40	=40	=40	=40	=40	=40	=40	=40
1E	2d]	2r	2.g	0r	0r	0r	0r
.	2c#	1g	.	.	.	.	.
.	.	.	4a	.	.	.	.
1D	1d	.	4b-	.	.	.	.
.	.	.	4cc	.	.	.	.
.	.	2f	[2dd	.	.	.	.
=41	=41	=41	=41	=41	=41	=41	=41
0r	1A	1e	2dd]	2r	1r	2r	1r
.	.	.	2cc#	2A	.	2a	.
.	1r	1d	1dd	2B-	2r	2f	2r
.	.	.	.	2G	2g	2b-	[2dd
=42	=42	=42	=42	=42	=42	=42	=42
0r	0r	0r	0r	2.d	2g	1a	2dd]
.	.	.	.	.	2f#	.	2dd
.	.	.	.	4c	.	.	.
.	.	.	.	4B-	1g	[1b-	4dd
.	.	.	.	4A	.	.	4cc
.	.	.	.	[2G	.	.	4b-
.	.	.	.	.	.	.	4a
=43	=43	=43	=43	=43	=43	=43	=43
2r	1r	1r	1r	2G]	[0d	2b-]	2g
2A	.	.	.	2F#	.	2a	2a
2B-	2r	2r	2r	1G	.	1g	1dd
2G	2g	2g	[2dd	.	.	.	.
=44	=44	=44	=44	=44	=44	=44	=44
2.d	2g	2a	2dd]	1D	0d]	1a	0dd
.	2f#	2a	2dd	.	.	.	.
4c	.	.	.	.	.	.	.
4B-	2.g	[1b-	4dd	1G	.	1g	.
4A	.	.	4cc	.	.	.	.
[2G	.	.	4b-	.	.	.	.
.	8f	.	4a	.	.	.	.
.	8e	.	.	.	.	.	.
=45	=45	=45	=45	=45	=45	=45	=45
2G]	0d	2b-]	2g	0r	0r	1r	0r
2F#	.	2a	2a	.	.	.	.
1G	.	1g	4b	.	.	2r	.
.	.	.	2cc	.	.	.	.
.	.	.	.	.	.	2g	.
.	.	.	4b	.	.	.	.
=46	=46	=46	=46	=46	=46	=46	=46
0C	0e	0g	0cc	1r	2g	4g	2r
.	.	.	.	.	.	4f	.
.	.	.	.	.	4g	4e	2gg
.	.	.	.	.	4f	4d	.
.	.	.	.	2r	4e	2c	4gg
.	.	.	.	.	4d	.	4ff
.	.	.	.	2c	4c	2g	4ee
.	.	.	.	.	4B-	.	4dd
=47	=47	=47	=47	=47	=47	=47	=47
0r	0r	0r	0r	4c	2A	2a	2cc
.	.	.	.	4B-	.	.	.
.	.	.	.	4A	2a	2cc	2ee
.	.	.	.	4G	.	.	.
.	.	.	.	2F	2a	2.cc	2ff
.	.	.	.	2c	2g	.	[2ee
.	.	.	.	.	.	4b-	.
=48	=48	=48	=48	=48	=48	=48	=48
0r	0r	0r	0r	2d	2f	2a	4ee]
.	.	.	.	.	.	.	4dd
.	.	.	.	2B-	4e	2g	1dd
.	.	.	.	.	4d	.	.
.	.	.	.	1A	1e	1a	.
.	.	.	.	.	.	.	2cc#
=49	=49	=49	=49	=49	=49	=49	=49
1r	2r	1r	0r	1B-	0d	1f	2.dd
.	2d	.	.	.	.	.	.
.	.	.	.	.	.	.	4cc
2r	4d	2d	.	1G	.	1g	4b-
.	4c	.	.	.	.	.	4a
2G	4B-	4d	.	.	.	.	2g
.	4A	4c	.	.	.	.	.
=50	=50	=50	=50	=50	=50	=50	=50
4G	2G	4B-	2r	0r	0r	0r	0r
4F	.	4A	.	.	.	.	.
4E	2G	2G	2gg	.	.	.	.
4D	.	.	.	.	.	.	.
[1C	2.g	2G	4gg	.	.	.	.
.	.	.	4ff	.	.	.	.
.	.	[2g	4ee	.	.	.	.
.	4f	.	4dd	.	.	.	.
=51	=51	=51	=51	=51	=51	=51	=51
2C]	4e	2g]	2cc	0r	0r	0r	0r
.	4d	.	.	.	.	.	.
2F	2c	4f	2a	.	.	.	.
.	.	4e	.	.	.	.	.
2G	2B-	4d	2b-	.	.	.	.
.	.	4e	.	.	.	.	.
2F	[2c	2f	[2a	.	.	.	.
=52	=52	=52	=52	=52	=52	=52	=52
2C	4c]	2e-	4a]	1r	1r	0r	0r
.	4B-	.	4g	.	.	.	.
2E-	2G	2c	1g	.	.	.	.
1D	1A	[1d	.	2r	2d	.	.
.	.	.	2f#	2d	4d	.	.
.	.	.	.	.	4c	.	.
=53	=53	=53	=53	=53	=53	=53	=53
1G	2G	1d]	2.g	4d	4B-	2dd	2r
.	.	.	.	4c	4A	.	.
.	2.G	.	.	4B-	2G	4dd	2dd
.	.	.	4a	4A	.	4cc	.
2r	.	1g	4b-	2.G	1d	4b-	4dd
.	4A	.	4cc	.	.	4a	4cc
2G	2B-	.	2dd	.	.	[2g	4b-
.	.	.	.	4F	.	.	4a
=54	=54	=54	=54	=54	=54	=54	=54
2C	1c	2.g	2r	4E	2.e	4g]	1g
.	.	.	.	4D	.	4f	.
2c	.	.	2gg	1C	.	4e	.
.	.	4f	.	.	4f	4d	.
2c	1G	2e	2.gg	.	[1g	2c	2g
2B	.	2d	.	2G	.	2d	[2gg
.	.	.	4ff	.	.	.	.
=55	=55	=55	=55	=55	=55	=55	=55
2c	1c	2c	4ee	2C	2g]	1e	2gg]
.	.	.	4dd	.	.	.	.
2C	.	2g	2cc	1c	2e	.	2gg
1G	2r	[1g	1dd	.	2d	1g	2.gg
.	[2G	.	.	2B	[2g	.	.
.	.	.	.	.	.	.	4ff
=56	=56	=56	=56	=56	=56	=56	=56
1C	2G]	0g]	2ee	0c	4g]	0g	4ee
.	.	.	.	.	4f	.	4dd
.	2G	.	1gg	.	4e	.	4cc
.	.	.	.	.	4d	.	4b
1C	2.G	.	.	.	1e	.	1cc
.	.	.	[2g	.	.	.	.
.	4A	.	.	.	.	.	.
=57	=57	=57	=57	=57	=57	=57	=57
[0G	[0B	[0g	4g]	[0G	[0d	[0g	[0b
.	.	.	4a	.	.	.	.
.	.	.	4b	.	.	.	.
.	.	.	4cc	.	.	.	.
.	.	.	1dd	.	.	.	.
=58	=58	=58	=58	=58	=58	=58	=58
0G]	0B]	0g]	0dd	0G]	0d]	0g]	0b]
==	==	==	==	==	==	==	==
*-	*-	*-	*-	*-	*-	*-	*-
!!!CDT: 1525/^1526/-1594/2/2
!!!OCY: Italia
!!!AGN: Mass (Parody)
!!!AST: renaissance, vocal
!!!ASW: Motet (Palestrina)
!!!PWK: Masses, Book 8vce
!!!RNB: Cadence finals: D
!!!YOR: Le Opere Complete, v. 30, p. 110
!!!YOO: Rome, Italy: Fratelli Scalera
!!!END: 1992//
!!!EED: John Miller
!!!YEC: Copyright 2000, John Miller
!!!YEN: United States of America
!!!YEM: Rights to all derivative electronic formats reserved.
!!!YEM: Refer to licensing agreement for further details.
!!!YEM: This file must be accompanied by the licensing agreement.
!!!YEM: A copy of the licensing agreement may be found at http://www.music-cog.ohio-state.edu/HumdrumDatabases/Palestrina/license.txt
!!!EMD: converted to Humdrum by Bret Aarden
